X: 1
T: String Quartet in G Major opus 33 no 5 mvt 3
C: Franz Joseph Haydn
%%abc-version 2.0
%%abcx-abcm2ps-target-version 5.9.1 (29 Sep 2008)
%%abc-creator hum2abc beta
%%abcx-conversion-date 2021/02/14 14:38:11
%%abc-copyright Copyright (c) 1994, 2000 Center for Computer Assisted Research in the Humanities
%%abc-edited-by Frances Bennion
%%abcx-initial-encoding-date 1997/04/15
%%gracespace 0 6 6
%%humdrum-veritas 3143779018
%%humdrum-veritas-data 523916460
%%linebreak <none>
%%barnumbers 0
L: 1/4
M: 3/4
N: Derived from op33n5-03.krn
Q: "Scherzo: Allegro"
%%staves [1 2 3 4]
V: 1
V: 2
V: 3 clef=alto
V: 4 clef=bass
K: G
[V:1]z2 G,/B,/ [I:setbarnb1] |
[V:2]z2 z |
[V:3]z2 z |
[V:4]z2 z |
[V:1]D B, F/G/ |
[V:2]B, B, B, |
[V:3]D D D |
[V:4]G,, G,, G,, |
[V:1]D ^A/B/ G |
[V:2]B, B, B, |
[V:3]D D D |
[V:4]G,, G,, G,, |
[V:1]^c/d/ B f/g/ |
[V:2]B, B, B, |
[V:3]D D D |
[V:4]G,, G,, G,, |
[V:1]d2 D/_E/ |
[V:2]C2 z |
[V:3]F2 z |
[V:4]A,2 z |
[V:1]E/=F/ ^F/G/ ^G/A/ |
[V:2]z3 |
[V:3]z3 |
[V:4]z3 |
[V:1]B/c/ a/f/ d/c/ |
[V:2]z c A |
[V:3]z D D |
[V:4]z F, F, |
[V:1]B g f |
[V:2]G B A |
[V:3]D D D |
[V:4]G, D, D, |
[V:1]z3 |
[V:2]z3 |
[V:3]z3 |
[V:4]z3 |
[V:1]a3 |
[V:2]f3 |
[V:3]c3 |
[V:4]D3 |
[V:1]b z b/^a/ |
[V:2]g z2 |
[V:3]B z2 |
[V:4]G, z2 |
[V:1]b/f/ g/e/ a/^g/ |
[V:2]E z2 |
[V:3]G z2 |
[V:4]G, z2 |
[V:1]a/e/ f/d/ a/^g/ |
[V:2]D z a/^g/ |
[V:3]F z A/^G/ |
[V:4]F, z A,/^G,/ |
[V:1]a/^g/ a/g/ a/g/ |
[V:2]a/^g/ a/g/ a/g/ |
[V:3]A/^G/ A/G/ A/G/ |
[V:4]A,/^G,/ A,/G,/ A,/G,/ |
[V:1]a/e/ f/^c/ d/A/ |
[V:2]a/e/ f/^c/ d/A/ |
[V:3]A/E/ F/^C/ D/A,/ |
[V:4]A,/E,/ F,/^C,/ D,/A,,/ |
[V:1]G G G |
[V:2]G E E |
[V:3]G, ^C C |
[V:4]A,, A,, A,, |
[V:1]G2 D/F/ |
[V:2]E2 z |
[V:3]^C2 z |
[V:4]A,,2 z |
[V:1]A F ^c/d/ |
[V:2]F F F |
[V:3]A, A, A, |
[V:4]D,, D, D, |
[V:1]A ^e/f/ d |
[V:2]F F F |
[V:3]A, A, A, |
[V:4]D, D, D, |
[V:1]^g a f |
[V:2]F z2 |
[V:3]A, z2 |
[V:4]D, z2 |
[V:1]^c'2 d' |
[V:2]z3 |
[V:3]z3 |
[V:4]z3 |
[V:1]a2 ^a- |
[V:2]z D z |
[V:3]z A, z |
[V:4]z F, z |
[V:1]a ^c'2 |
[V:2]D z D |
[V:3]B, z B, |
[V:4]G, z G, |
[V:1]b2 g/e/ |
[V:2]z E z |
[V:3]z B, z |
[V:4]z G, z |
[V:1]d3- |
[V:2]F3 |
[V:3]D3 |
[V:4]A,3- |
[V:1]d2 e |
[V:2]G3 |
[V:3]^C3 |
[V:4]A,3 |
[V:1]d z d/_e/ |
[V:2]F z2 |
[V:3]D z _B,/C/ |
[V:4]D,3- |
[V:1]c c/d/ _B |
[V:2]z2 D |
[V:3]A, A,/_B,/ G, |
[V:4]D,3- |
[V:1]_B/c/ A A/B/ |
[V:2]D/_E/ C C/D/ |
[V:3]z3 |
[V:4]D,3- |
[V:1]G _E ^C |
[V:2]_B, G, G, |
[V:3]z3 |
[V:4]D,3- |
[V:1]D/^C/ D/C/ D/C/ |
[V:2]A, z2 |
[V:3]D,/^C,/ D,/C,/ D,/C,/ |
[V:4]D, z2 |
[V:1]D ^C =C/A,/ |
[V:2]z3 |
[V:3]D, z2 |
[V:4]D,, E,, F,, |
[V:1]G,/B,/ D/B,/ D/B,/ |
[V:2]B, B, B, |
[V:3]D D D |
[V:4]G,, G,, G,, |
[V:1]D B, F/G/ |
[V:2]B, B, B, |
[V:3]D D D |
[V:4]G,, G,, G,, |
[V:1]D ^A/B/ G |
[V:2]B, B, B, |
[V:3]D D D |
[V:4]G,, G,, G,, |
[V:1]^c/d/ B f/g/ |
[V:2]B, B, B, |
[V:3]D D D |
[V:4]G,, G,, G,, |
[V:1]d2 D/_E/ |
[V:2]C2 z |
[V:3]F2 z |
[V:4]A,2 z |
[V:1]E/=F/ ^F/G/ ^G/A/ |
[V:2]z3 |
[V:3]z3 |
[V:4]z3 |
[V:1]B/c/ a/f/ d/c/ |
[V:2]z c A |
[V:3]z D D |
[V:4]z F, F, |
[V:1]B g f |
[V:2]G B A |
[V:3]D D D |
[V:4]G, D, D, |
[V:1]z3 |
[V:2]z3 |
[V:3]z3 |
[V:4]z3 |
[V:1]a3 |
[V:2]f3 |
[V:3]c3 |
[V:4]D3 |
[V:1]b z g |
[V:2]g z B/d/ |
[V:3]B z2 |
[V:4]G, z2 |
[V:1]f g a |
[V:2]c/d/ B/d/ A/d/ |
[V:3]z3 |
[V:4]z3 |
[V:1]a/b/ g b |
[V:2]G z2 |
[V:3]z2 D |
[V:4]z2 G, |
[V:1]b/c'/ a/c'/ b/g/ |
[V:2]z3 |
[V:3]D D G |
[V:4]F,2 G, |
[V:1]a2 g |
[V:2]z2 G |
[V:3]F2 z |
[V:4]D,2 B,/D/ |
[V:1]f g a |
[V:2]F G A |
[V:3]z3 |
[V:4]C/D/ B,/D/ A,/D/ |
[V:1]a/b/ g a |
[V:2]A/B/ G A |
[V:3]z2 D |
[V:4]G, z F, |
[V:1]b >g' e'/^c'/ |
[V:2]B B/g/ e/^c/ |
[V:3]D d/B/ G/E/ |
[V:4]G,2 A, |
[V:1]d' z d |
[V:2]d z2 |
[V:3]D z2 |
[V:4]D, z2 |
[V:1]^c/d/ e/d/ b/d/ |
[V:2]B2 ^G |
[V:3]z3 |
[V:4]z3 |
[V:1]d/^c/ a/=c/ c/B/ |
[V:2]A F G |
[V:3]z3 |
[V:4]z3 |
[V:1]g/B/ B/A/ e/G/ |
[V:2]C2 ^C |
[V:3]z3 |
[V:4]z3 |
[V:1]F2 g |
[V:2]D2 G |
[V:3]z3 |
[V:4]D,/D/ ^C/D/ C/D/ |
[V:1]f g a |
[V:2]F G A |
[V:3]z3 |
[V:4]C/D/ B,/D/ A,/D/ |
[V:1]a/b/ g b |
[V:2]A/B/ G z |
[V:3]z2 G |
[V:4]G,2 z |
[V:1]b/c'/ a/c'/ b/g/ |
[V:2]d2 B/G/ |
[V:3]F2 G |
[V:4]z3 |
[V:1]a2 a |
[V:2]F2 A |
[V:3]D2 C/E/ |
[V:4]z2 C,/E,/ |
[V:1]^g a b |
[V:2]^G A B |
[V:3]D/E/ C/E/ B,/E/ |
[V:4]D,/E,/ C,/E,/ B,,/E,/ |
[V:1]b/c'/ a c' |
[V:2]B/c/ A c |
[V:3]A,2 D |
[V:4]A,,2 F,, |
[V:1]c'/b/ g/b/ a/f/ |
[V:2]c/B/ G/B/ A/F/ |
[V:3]D2 C/A,/ |
[V:4]G,, B,, D, |
[V:1]g z2 |]
[V:2]G z2 |]
[V:3]G, z2 |]
[V:4]G,, z2 |]

